X:7293
T:The Roscommon Reel
O:england
M:C|
L:1/8
Q:240
R:Reel
K:E Dor
EFGA BAGB | AF~F2 dFAF | EFGA ~B3  d |1 AFDE FE{G}ED :|2 AFDE FE~E2 ||
eB~B2 efge | fa~a2 bfaf | eB~B2 efge | fagf efgf |
eB~B2 efge | fa~a2 bfag | fa{b}af ef{a}fe | dBAF EFGA ||:
~B3   A ~B2  dB | AF~F2 dFAF | EB{d}BA ~B3   d |1  AFDE FE{G}ED :|2 AFDE
FEE2 ||


